modules/feathericon/icons/prototype.svg

<?xml version="1.0" encoding="UTF-8"?>
<svg width="14px" height="14px" viewBox="0 0 14 14" version="1.1" xmlns="http://www.w3.org/2000/svg" xmlns:xlink="http://www.w3.org/1999/xlink">
    <!-- Generator: sketchtool 48.1 (47250) - http://www.bohemiancoding.com/sketch -->
    <title>prototype</title>
    <desc>Created with sketchtool.</desc>
    <defs></defs>
    <g id="production" stroke="none" stroke-width="1" fill="none" fill-rule="evenodd">
        <g id="prototype" fill="#000000">
            <path d="M5.99921137,3 L5.99921137,7.23790598 L4.61076079,8.49197581 C4.33635247,8.18976042 3.94033378,8 3.5,8 C2.67157288,8 2,8.67166116 2,9.50019718 C2,10.3287332 2.67157288,11.0003944 3.5,11.0003944 C4.32842712,11.0003944 5,10.3287332 5,9.50019718 C5,9.39488184 4.9891494,9.29210112 4.96850529,9.19291225 L5.99921137,8.24939711 L5.99921137,13 C5.99921137,14 4.99934281,14 4.99934281,14 L0.999868562,14 C0.999868562,14 0.00628436447,14 0,13 C0.00628436447,13 3.55271368e-15,3 0,3 C0,2 0.999868562,2 0.999868562,2 L4.99934281,2 C4.99934281,2 5.99921137,2 5.99921137,3 Z M8.00078863,11 C8.00365194,11 8.00333421,6.66388816 8.00333421,6.66388816 L9.38952291,5.50873091 C9.66392044,5.81076469 10.0598179,6.00039437 10.5,6.00039437 C11.3284271,6.00039437 12,5.32873321 12,4.50019718 C12,3.67166116 11.3284271,3 10.5,3 C9.67157288,3 9,3.67166116 9,4.50019718 C9,4.6054447 9.01083663,4.70816086 9.03145483,4.80729047 L8.00303526,5.66448676 L8.00078863,1 C8.00078863,0 9.00065719,0 9.00065719,0 L13.0001314,0 C13.0001314,0 14,-3.33066907e-16 14,1 L14,11 C14,12 13.0001314,12 13.0001314,12 L9.00065719,12 C9.00065719,12 8.00707299,12 8.00078863,11 Z" id="Shape"></path>
        </g>
    </g>
</svg>

<svg width="14" height="14" xmlns="http://www.w3.org/2000/svg"><path d="M6 3v4.238L4.61 8.492a1.5 1.5 0 1 0 .358.7L6 8.25V13c0 1-1 1-1 1H1S.007 14 0 13C.006 13 0 3 0 3c0-1 1-1 1-1h4s1 0 1 1zm2 8c.004 0 .003-4.336.003-4.336L9.39 5.509a1.5 1.5 0 1 0-.358-.701l-1.029.856L8.001 1c0-1 1-1 1-1h4S14 0 14 1v10c0 1-1 1-1 1H9s-.993 0-1-1z" fill="#000" fill-rule="evenodd"/></svg>
